X:98
T: WOS GAR ZU SACHT UND STILLE GEHT
N: F0209
O: Europa, Mitteleuropa, Deutschland
R: Geselligkeits - Lied
M: 3/4
L: 1/16
K: G
G2 | d3dd6c2 | c3BB6
A2 | G6B2A2c2 | B3cd6
g2 | f3ed6c2 | B4G4z2
G2 | d3dd6c2 | c3BB6
A2 | G6B2A2c2 | B3cd6
g2 | f3ed6c2 | B4G4z2
B2 | A3AA6B2 | d3cc4z2
c2 | B6d2c2e2 | e3dd4z2
g2 | d6B2c2e2 | d6B2c3A | A4G2z4
B2 | A3AA6B2 | d3cc4z2
c2 | B6d2c2e2 | e3dd4z2
g2 | d6B2c2e2 | d6B2c3A | A4G2z4

